app/images/icons/icons8-google-sheets (1).svg

<svg height="48" viewBox="0 0 48 48" width="48" xmlns="http://www.w3.org/2000/svg"><path d="m37 45h-26c-1.657 0-3-1.343-3-3v-36c0-1.657 1.343-3 3-3h19l10 10v29c0 1.657-1.343 3-3 3z" fill="#43a047"/><path d="m40 13h-10v-10z" fill="#c8e6c9"/><path d="m30 13 10 10v-10z" fill="#2e7d32"/><path d="m31 23h-14-2v2 2 2 2 2 2 2h18v-2-2-2-2-2-2-2zm-14 2h4v2h-4zm0 4h4v2h-4zm0 4h4v2h-4zm14 2h-8v-2h8zm0-4h-8v-2h8zm0-4h-8v-2h8z" fill="#e8f5e9"/></svg>

<svg xmlns="http://www.w3.org/2000/svg" viewBox="0 0 48 48" width="48px" height="48px"><path fill="#43a047" d="M37,45H11c-1.657,0-3-1.343-3-3V6c0-1.657,1.343-3,3-3h19l10,10v29C40,43.657,38.657,45,37,45z"/><path fill="#c8e6c9" d="M40 13L30 13 30 3z"/><path fill="#2e7d32" d="M30 13L40 23 40 13z"/><path fill="#e8f5e9" d="M31,23H17h-2v2v2v2v2v2v2v2h18v-2v-2v-2v-2v-2v-2v-2H31z M17,25h4v2h-4V25z M17,29h4v2h-4V29z M17,33h4v2h-4V33z M31,35h-8v-2h8V35z M31,31h-8v-2h8V31z M31,27h-8v-2h8V27z"/></svg>
